X: 40173
T: Time And Tide
R: polka
M: 2/4
K: Gmajor
AB AG|AE EA|AB AG|D2>E2|
GA Bd|B/A/G dG|e2 dB|1 GB AG:|2 GA Bd||
e2 ed|eB Be|eB de|de fg|
g2 fg|dG GF|e2 dB|A2>GA/|
B2>d2|GA AG|g2 fa|g2 fd|
c2 Bc|dA AG|e2 dB|G4||

